!!!COM: Schiørring, Niels
!!!CDT: 1743-1798
!!!OPR@@DA: Choral-Bog
!!!ONM: 49
!!!OTL@@DA: Jeſu! dine dybe Vunder Den brugelige Mel.
**kern	**fb	**kern	**kern	**kern	**kern	**kern	**kern	**kern
*part6	*part6	*part6	*part5	*part5	*part4	*part3	*part2	*part1
*staff8	*	*staff7	*staff6	*staff5	*staff4	*staff3	*staff2	*staff1
*clefF4	*	*clefC1	*clefF4	*clefC1	*clefF4	*clefC4	*clefC3	*clefC1
*mclefF4	*	*mclefG2	*mclefF4	*mclefG2	*mclefF4	*mclefGv2	*mclefG2	*mclefG2
*k[f#]	*	*k[f#]	*k[f#]	*k[f#]	*k[f#]	*k[f#]	*k[f#]	*k[f#]
*G:	*	*G:	*G:	*G:	*G:	*G:	*G:	*G:
*M4/4	*	*M4/4	*M4/4	*M4/4	*M4/4	*M4/4	*M4/4	*M4/4
*met(c)	*	*met(c)	*met(c)	*met(c)	*met(c)	*met(c)	*met(c)	*met(c)
*MM180	*	*MM180	*MM180	*MM180	*MM180	*MM180	*MM180	*MM180
*	*above	*	*	*	*	*	*	*
*	*slash	*	*	*	*	*	*	*
=1	=1	=1	=1	=1	=1	=1	=1	=1
*	*	*	*^	*^	*	*	*	*
2G	.	2g	2B	2G	2g	2d	2G	2B	2d	2g
2F#	6	2a	2d	2F#	2a	4d	2F#	[2A	2d	2a
.	.	.	.	.	.	[4a	.	.	.	.
=2	=2	=2	=2	=2	=2	=2	=2	=2	=2	=2
2G	9	2b	[1d	2G	2b	4a]	2G	(4A]	2d	2b
.	8	.	.	.	.	2g	.	2G)	.	.
2D	4	2a	.	2D	2a	.	2D	.	[2d	2a
.	3	.	.	.	.	[4f#	.	[4F#	.	.
=3	=3	=3	=3	=3	=3	=3	=3	=3	=3	=3
2E	9 7	2g	4d]	2E	2g	4f#]	2E	4F#]	(4d]	2g
.	8 #6\	.	4c#X	.	.	4e	.	4E	4c#X)	.
4F#	6_	2f#	2A	4F#	2f#	[2d	(4F#	2A	[2d	2f#
4G	.	.	.	4G	.	.	4G)	.	.	.
=4	=4	=4	=4	=4	=4	=4	=4	=4	=4	=4
2A	4	1e	2A	2A	1e	2d]	(2A	(2A	(2d]	1e
2AA	#	.	2G	2AA	.	2c#X	2AA)	2G)	2c#X)	.
=5	=5	=5	=5	=5	=5	=5	=5	=5	=5	=5
1D	.	1d	1F#	1D	1d	1A	1D	1F#	1d	1d
=6	=6	=6	=6	=6	=6	=6	=6	=6	=6	=6
2BB	6	2g	2B	2B	2g	2d	2B	2G	2d	2g
2AA	6	2a	2c	2A	2a	2f#	2A	2c	2f#	2a
=7	=7	=7	=7	=7	=7	=7	=7	=7	=7	=7
*	*	*	*	*	*	*	*^	*	*	*
2GG	.	2b	2d	2G	2b	2g	2G	4GG	2d	2g	2b
.	.	.	.	.	.	.	.	4G	.	.	.
2FF#	5	2cc	2A	2F#	2cc	2d	2F#	2F#	2d	2a	2cc
*	*	*	*	*	*	*	*v	*v	*	*	*
=8	=8	=8	=8	=8	=8	=8	=8	=8	=8	=8
4GG	.	2b	2.G	4G	2b	2d	(4G	2d	[2g	2b
4BB	.	.	.	4BB	.	.	4BB)	.	.	.
4C	6 5	2a	.	4C	2a	4e	(4C	(4e	(4g]	2a
4D	3	.	4F#	4D	.	4d	4D)	4d)	4f#)	.
=9	=9	=9	=9	=9	=9	=9	=9	=9	=9	=9
*	*	*	*	*	*	*^	*	*	*	*
1GG	.	1g	1G	1GG	1g	1d	1B\	1GG	1B	1g	1g
=10:|!	=10:|!	=10:|!	=10:|!	=10:|!	=10:|!	=10:|!	=10:|!	=10:|!	=10:|!	=10:|!	=10:|!
2E	.	2b	1G	2E	2b	2g	1r	2E	2e	2g	2b
2C	.	2cc	.	2C	2cc	2e	.	2C	2e	2g	2cc
=11	=11	=11	=11	=11	=11	=11	=11	=11	=11	=11	=11
2BB	nr5	2dd	2G	2BB	2dd	2fn	1r	2BB	2f	2g	2dd
2C	.	2cc	[2G	2C	2cc	2e	.	2C	2e	[2g	2cc
=12	=12	=12	=12	=12	=12	=12	=12	=12	=12	=12	=12
1D	6 4	2b	2G]	1D	2b	1d	1r	2D	2d	2g]	2b
.	5 #	2a	2F#Xi	.	2a	.	.	2D	2d	2f#	2a
=13	=13	=13	=13	=13	=13	=13	=13	=13	=13	=13	=13
1GG	.	1b	1G	1GG	1b	1d	1r	1GG	1d	1g	1b
=14	=14	=14	=14	=14	=14	=14	=14	=14	=14	=14	=14
2BB	6	2dd	2G	2BB	2dd	2d	1r	2BB	2d	2g	2dd
2G	.	2dd	2B	2G	2dd	2g	.	2G	2B	2g	2dd
=15	=15	=15	=15	=15	=15	=15	=15	=15	=15	=15	=15
2C	.	2ee	2c	2C	2ee	2g	1r	2C	2c	2g	2ee
2D	.	2dd	2A	2D	2dd	2f#	.	2D	2A	2f#	2dd
=16	=16	=16	=16	=16	=16	=16	=16	=16	=16	=16	=16
4E	6	2cc	1ryy	4E	4e	4g	1r	(4E	(4G	(4g	2cc
4F#	5	.	.	4F#	4d	4a	.	4F#)	4d)	4a)	.
2G	.	2b	.	2G	2d	[2g	.	2G	2d	[2g	2b
=17	=17	=17	=17	=17	=17	=17	=17	=17	=17	=17	=17
4C#X	5	1a	1A	4C#X	1a	2g]	4e\	(4C#X	(4e	(2g]	1a
4AA	6 #	.	.	4AA	.	.	4c#X\	4AA	4c#X	.	.
2D	.	.	.	2D	.	2f#	2d\	2D)	2d)	2f#)	.
*	*	*	*	*	*	*v	*v	*	*	*	*
=18	=18	=18	=18	=18	=18	=18	=18	=18	=18	=18
2D	6 n	2b	1ryy	2D	2fn	2b	2D	2d	2fn	2b
2GG#X	5	2dd	.	2GG#X	2e	2b	2GG#X	2B	2e	2dd
=19	=19	=19	=19	=19	=19	=19	=19	=19	=19	=19
2AA	8	2cc	1ryy	2AA	2.e	4a	2AA	(4A	[2e	2cc
.	n7	.	.	.	.	2gni	.	2G)	.	.
2BB	6 4	2b	.	2BB	.	.	2BB	.	(4e]	2b
.	5 #	.	.	.	4d#X	4f#Xi	.	4F#	4d#X)	.
=20	=20	=20	=20	=20	=20	=20	=20	=20	=20	=20
2E	.	2g	1ryy	2E	2B	2e	2E	2G	2B	2g
2D	.	2a	.	2Dni	2dni	2f#	2D	2d	2f#	2a
=21	=21	=21	=21	=21	=21	=21	=21	=21	=21	=21
1GG	8	1b	1ryy	1GG	1d	2g	1GG	1d	(2g	1b
.	n7	.	.	.	.	2fn	.	.	2fn)	.
=22	=22	=22	=22	=22	=22	=22	=22	=22	=22	=22
1C	.	1g	1ryy	1C	1c	1e	1C	1c	1e	1g
=23	=23	=23	=23	=23	=23	=23	=23	=23	=23	=23
2GG	.	2b	1ryy	2GG	2d	2g	2GG	2B	2d	2b
2E	#	2b	.	2E	2e	2g#X	2E	2G#X	2e	2b
=24	=24	=24	=24	=24	=24	=24	=24	=24	=24	=24
2C	6	2cc	1ryy	2C	2e	2a	2C	2A	2e	2cc
2C#X	7 5	2b	.	2C#X	2e	[2gni	2C#X	2e	[2g	2b
=25	=25	=25	=25	=25	=25	=25	=25	=25	=25	=25
2D	4	2a	2A	2D	2a	4g]	2D	2A	(4g]	2a
.	3	.	.	.	.	4f#	.	.	4f#)	.
2BB	6	2b	[2G	2BB	2b	2d	2BB	2d	[2g	2b
=26	=26	=26	=26	=26	=26	=26	=26	=26	=26	=26
2C	6 5	1a	2G]	2C	1a	2e	(2C	(2e	(2g]	1a
2D	.	.	4F#	2D	.	2d	2D)	4d	2f#)	.
.	.	.	4c	.	.	.	.	4c)	.	.
=27	=27	=27	=27	=27	=27	=27	=27	=27	=27	=27
1GG	.	1g	1ryy	1GG	1B	1d	1GG	1B	1g	1g
*	*	*	*v	*v	*	*	*	*	*	*
*	*	*	*	*v	*v	*	*	*	*
==	==	==	==	==	==	==	==	==
*-	*-	*-	*-	*-	*-	*-	*-	*-
!!!system-decoration: {(s1,s2,s3,s4)}{(s5,s6)}{(s7,s8)}
!!!RDF**kern: i = editorial accidental
!!!RDF**kern: > = above
!!!RDF**kern: < = below
!!!AGN: chorale
!!!EED: Derek Remeš
!!!EED2: Victor Phan
!!!END: 2023/11/28
!!!ENC: Wolfgang Drescher
!!!EEV: 2023/12/11
!!!title: @{ONM}. @{OTL}
!!!verovio: mnumInterval 1